www/assets/icons/water_drop.svg

<svg xmlns="http://www.w3.org/2000/svg" width="24" height="24" viewBox="0 0 24 24" fill='currentColor'><path d="M12 2c-5.33 4.55-8 8.48-8 11.8 0 4.98 3.8 8.2 8 8.2s8-3.22 8-8.2c0-3.32-2.67-7.25-8-11.8M7.83 14c.37 0 .67.26.74.62.41 2.22 2.28 2.98 3.64 2.87.43-.02.79.32.79.75 0 .4-.32.73-.72.75-2.13.13-4.62-1.09-5.19-4.12a.75.75 0 0 1 .74-.87"/></svg>

<svg width="24" height="24" viewBox="0 0 24 24" xmlns="http://www.w3.org/2000/svg" fill='currentColor'><path d="M12 2C6.67 6.55 4 10.48 4 13.8C4 18.78 7.8 22 12 22C16.2 22 20 18.78 20 13.8C20 10.48 17.33 6.55 12 2ZM7.83 14C8.2 14 8.5 14.26 8.57 14.62C8.98 16.84 10.85 17.6 12.21 17.49C12.64 17.47 13 17.81 13 18.24C13 18.64 12.68 18.97 12.28 18.99C10.15 19.12 7.66 17.9 7.09 14.87C7.01 14.42 7.37 14 7.83 14Z"/></svg>
